X:1
T: The Thack Cottage
C:
R:Strathspey
Q: 128
K:Gm
M:4/4
L:1/16
|:g4 d3c BG3 G3B|A3f c3f AF3 F3A|G3A B3c d3e d3c|Bg3 ^f3a g4 d4|
g4 d3c BG3 G3B|A3f c3f AF3 F3A|G3A B3c d3e d3c|Bg3 ^f3a g4 d4|
g3a b3g a3b g3d|f3g a3f g3a f3d|g3a b3g a3b g3d|cA3 d3^F G6 d2|
g3a b3g a3b g3d|f3g a3f g3a f3d|g3a b3g a3b g3d|cA3 d3^F G8:|
